public_html/images/ico/add.svg

<?xml version="1.0" encoding="UTF-8" standalone="no"?>
<svg width="22px" height="22px" viewBox="0 0 22 22" version="1.1" xmlns="http://www.w3.org/2000/svg" xmlns:xlink="http://www.w3.org/1999/xlink" xmlns:sketch="http://www.bohemiancoding.com/sketch/ns">
    <!-- Generator: Sketch 3.3.3 (12081) - http://www.bohemiancoding.com/sketch -->
    <title>Untitled 5</title>
    <desc>Created with Sketch.</desc>
    <defs></defs>
    <g id="Page-1" stroke="none" stroke-width="1" fill="none" fill-rule="evenodd" sketch:type="MSPage">
        <path d="M11,0 C17.0751322,2.27373675e-13 22,4.92486775 22,11 C22,17.0751322 17.0751322,22 11,22 C4.92486775,22 0,17.0751322 0,11 C0,4.92486775 4.92486775,2.27373675e-13 11,2.27373675e-13 L11,0 Z M12,10 L12,5 L10,5 L10,10 L5,10 L5,12 L10,12 L10,17 L12,17 L12,12 L17,12 L17,10 L12,10 Z" id="Shape" fill="#0094FF" sketch:type="MSShapeGroup"></path>
    </g>
</svg>

<svg width="22" height="22" xmlns="http://www.w3.org/2000/svg"><path d="M11 0c6.075 0 11 4.925 11 11s-4.925 11-11 11S0 17.075 0 11 4.925 0 11 0zm1 10V5h-2v5H5v2h5v5h2v-5h5v-2h-5z" fill="#0094FF" fill-rule="evenodd"/></svg>
